!!!OTL: Die Schneidergei&szlig; (253), S. 540
!!!id: T0442
**kern
*clefG2
*k[f#]
*G:
{8d
=1
4g
8g
4g
8g
=2
4a
8a
4a}
=3
{8g
=4
4g
8g
4e
8f#
=5
4.g}
4r
=6
{8g
=7
8g
8g
8b
8dd
8b
8g
=8
4g
8b
4dd}
=9
{8g
=10
4g
8g
4b
8a
=11
4.g}
4r
=12
{8g
=13
4g
8b
4dd
8b
=14
4a
8b
4cc}
=15
{8d
=16
8d
8d
8d
8d
8e
8f#
=17
8g
8g
8g
4g}
=18
{8g
=19
4g
8b
4dd
8b
=20
4a
8b
4cc}
=21
{8d
=22
8d
8d
8d
8d
8e
8f#
=23
4.g}
4.r
=24
{4.g
16b
16b
16b
16b
16g
16g
=25
4a
8a
4.a
=26
4d
8d
4.d
=27
4g
8g
4.g}
=28
{4.g
16b
16b
16b
16b
16g
16g
=29
4a
8a
4cc}
=30
{8a
=31
4b
8g
4b
8a
=32
4.g}
4r
==
*-
!!!minrhy: 16
!!!meters: 6/8 ]  ZZ[11
!!!cut: Die Schneidergei&szlig; (253), S. 540
!!!reg: Luxemburg
!!!trd: Singendes Volk, Esch-Alzette, 1937 posth.
!!!rhy1: X_  X__X_X__X_  X__X_X__   (x2)
!!!rhy2: X_  X__X_X__X_  X__.0_
!!!key: T0442  16  G 6/8 ]  ZZ[11
!!!mod: HEPTATONIK IONISCH]  AMBITUS[8
!!!kad: 21514141141
!!!akz: 1122_1-61_1515_131_1524_-5-511_1524_-5-51_1322-5-511_1324_331_
!!!fot: 'a__b__c__d__e__f__e__fv_dw_dw_g__
!!!for: 'a__aw_b__aw_a__c__a__bw_d__dw_aw_
!!!fok: '/__V__~a_^__~a_/__~a_/__-__/__\__
!! PHRAS[VORWIEGEND AUFTAKTIG]
!!!fkt: Berufslied
!!!bem: Heffingen, fff Gelf, 30.8.1934
!! THILL; Mathias
!! PR[49] 2K[9] 2G[22] 3K[0] 3G[0] 4A[3] 4Ü[0] 5A[0] 6K[0] 6G[0]
!! 7K[0] 7G[0] 8A[0] MEHR[0] SI[34] ABS[65] SR[31] SP[3]
!! ST[17] 2k[3] 2g[3] 3k[0] 3g[3] 4d[8] 4ü[0] 5d[0] 6k[0] 6g[0]
!! 7k[0] 7g[0] 8d[0] mehr[0] si[17] dm[+17] sr[6] sp[11]
!! 1F[17] 2F[77] 3F[6] 4F[0] LF[0] 2P[0] 3P[0] 4P[0] TRI[0] DF[3] AB[70]
!! TF[0] U3K[0] U3[0] U4[0] U4Ü[0] U5[15] U6K[0] U6[9] U7K[0] U7[6]
!! N1[36] N2K[0] N2[6] N3K[0] N3[21] N4[6] N4Ü[0] N5[0] N6K[0] N6[0]
!!!n7k: 0] N7[0] O1[0] O2K[0] O2[0] O3K[0] O3[0] HÖ[0
!!!RNB: symbol: &szlig; = sz ligature (UTF-8: ÃŸ)
